X: 41889
T: Vou Vivendo
R: polka
M: 2/4
K: Gmajor
|:"G"B2-"G#o"B/dc/|"D7"B/A^G/ Ad|"Em"G2-G/BA/|
"4""Am"G/F^E/ "B7"FB|"C"E2-E/"Cm"GE/|"G"D/EF/ "Em"G2-|"A7"G/ E/F/G/ B/A/E/G/-|
"8""D7"-G/F A/ E/D _B/-|"Gm"B2-B/ dc/|"D7"_B/A^G/Ad|"C"G2-G "C7"_BA/|
"12""F7"G/=FE/ "Bb7"F_B|"Cm"_E2-E/GE/|"G"D/=EF/ "Em"G/A/B/ d/-|"Am"d/cE/ "D7"B/A/D/G/-|
[1"16""G"G/Bd/g-g/B/:|2 "G"G/Bd/ g2|:"Em"z/e/e/e/ e/e/e/^d/-|"B7"d/^d/B/A/ F/A/B/d/|
"2
""E7"z/=d/d/d/ d/d/d/d/-|"Am"d/c/A/E/-E/ E/A/c/|"Am"z/c/c/c/ c/d/c/c/-|"Em"c/B/G/E/-E/ E/G/B/|
"24""F#7"z/^A^c/ e/g/f/e/|"B7"^d/af/ d/c/B/A/|"Em"G/g/g/g/ g/g/g/g/-|"B7"g/f/^d/B/ A/B/d/f/|
"28""E7"z/=f/f/f/ f/f/f/f/-|"Am"f/e/c/A/ E/A/c/e/|"Am"z/AB/ c/B/c/d/|"Em"c/Bg/-g/e/B/G/|
"32""F#7"F/G/A/B/ "B7"c/BE/-|1 "Em"E/F/G/B/ e2:|2 "Em"E/F/G/B/ "G"e2||
[K:C]|:"36""C"e2-e/ Ge/|"E7"e2-e/ Ae/|"A7"e2-e/fe/|"Dm"g/f d/A-A/ D/|
"4
""Dm"A-A/B/ c/B/c/A/|"G7"c/B ^E/A-A/^G/|"G7"=G-G/A/ B/=c/d/^d/|"C"e/c A/G/ E/G/c/|
"44""C"e2-e/ Ge/|"E7"e2-e/ Ae/|"A7"e2-e/a"Dm"e/|g/ fd/A2|
"48""Dm7"z/c/d/^d/e/=dc/-|"C"c/G/G/A/ "A7"B/AE/|"Dm"G/=F/A/c/ "G7"e/dG/|
[1"C"c/A/G/e/ c/E/G/c/:]|2 "C"c/d/e/g/c'2]||

